src/images/medium.svg

<svg xmlns="http://www.w3.org/2000/svg" width="375" viewBox="0 0 375 375" height="375" version="1.0"><defs><clipPath id="a"><path d="M 0 80.566406 L 375 80.566406 L 375 294 L 0 294 Z M 0 80.566406"/></clipPath></defs><path fill="#FFF" d="M-37.5 -37.5H412.5V412.5H-37.5z"/><path fill="#FFF" d="M-37.5 -37.5H412.5V412.5H-37.5z"/><path fill="#A3A3A3" d="M-37.5 -37.5H412.5V412.5H-37.5z"/><g clip-path="url(#a)"><path fill="#FFF" d="M 105.761719 80.566406 C 164.175781 80.566406 211.523438 128.21875 211.523438 186.996094 C 211.523438 245.773438 164.171875 293.425781 105.761719 293.425781 C 47.355469 293.425781 0 245.773438 0 186.996094 C 0 128.21875 47.351562 80.566406 105.761719 80.566406 Z M 274.660156 86.800781 C 303.863281 86.800781 327.539062 131.65625 327.539062 186.996094 L 327.542969 186.996094 C 327.542969 242.324219 303.867188 287.191406 274.664062 287.191406 C 245.457031 287.191406 221.78125 242.324219 221.78125 186.996094 C 221.78125 131.671875 245.453125 86.800781 274.660156 86.800781 Z M 356.402344 97.238281 C 366.671875 97.238281 375 137.421875 375 186.996094 C 375 236.554688 366.675781 276.757812 356.402344 276.757812 C 346.128906 276.757812 337.804688 236.566406 337.804688 186.996094 C 337.804688 137.425781 346.132812 97.238281 356.402344 97.238281 Z M 356.402344 97.238281"/></g></svg>

<svg xmlns="http://www.w3.org/2000/svg" width="375" height="375" version="1.0"><defs><clipPath id="a"><path d="M0 80.566h375V294H0Zm0 0"/></clipPath></defs><path fill="#FFF" d="M-37.5-37.5h450v450h-450z"/><path fill="#FFF" d="M-37.5-37.5h450v450h-450z"/><path fill="#A3A3A3" d="M-37.5-37.5h450v450h-450z"/><g clip-path="url(#a)"><path fill="#FFF" d="M105.762 80.566c58.414 0 105.761 47.653 105.761 106.43 0 58.777-47.351 106.43-105.761 106.43C47.355 293.426 0 245.773 0 186.996c0-58.777 47.352-106.43 105.762-106.43Zm168.898 6.235c29.203 0 52.88 44.855 52.88 100.195h.003c0 55.328-23.676 100.195-52.879 100.195-29.207 0-52.883-44.867-52.883-100.195 0-55.324 23.672-100.195 52.88-100.195Zm81.742 10.437c10.27 0 18.598 40.184 18.598 89.758 0 49.559-8.324 89.762-18.598 89.762-10.273 0-18.597-40.192-18.597-89.762s8.328-89.758 18.597-89.758Zm0 0"/></g></svg>
